svgs/sharp-light/fence.svg

<svg xmlns="http://www.w3.org/2000/svg" viewBox="0 0 512 512"><!--! Font Awesome Pro 6.4.0 by @fontawesome - https://fontawesome.com License - https://fontawesome.com/license (Commercial License) Copyright 2023 Fonticons, Inc. --><path d="M32 288V448H96V384 352 192 160 109.3l-32-32-32 32V288zm96 96v64 32H96 32 0V448 288 96L41.4 54.6 64 32 86.6 54.6 128 96v64h64V96l41.4-41.4L256 32l22.6 22.6L320 96v64h64V96l41.4-41.4L448 32l22.6 22.6L512 96V448v32H480 416 384V448 384H320v64 32H288 224 192V448 384H128zm288-32v32 64h64V109.3l-32-32-32 32V288v64zm-32 0V288 192H320V352h64zM128 192V352h64V288 192H128zm96-82.7V288 448h64V384 352 192 160 109.3l-32-32-32 32z"/></svg>

<svg xmlns="http://www.w3.org/2000/svg" viewBox="0 0 512 512"><!--! Font Awesome Pro 6.6.0 by @fontawesome - https://fontawesome.com License - https://fontawesome.com/license (Commercial License) Copyright 2024 Fonticons, Inc. --><path d="M32 288l0 160 64 0 0-64 0-32 0-160 0-32 0-50.7-32-32-32 32L32 288zm96 96l0 64 0 32-32 0-64 0L0 480l0-32L0 288 0 96 41.4 54.6 64 32 86.6 54.6 128 96l0 64 64 0 0-64 41.4-41.4L256 32l22.6 22.6L320 96l0 64 64 0 0-64 41.4-41.4L448 32l22.6 22.6L512 96l0 352 0 32-32 0-64 0-32 0 0-32 0-64-64 0 0 64 0 32-32 0-64 0-32 0 0-32 0-64-64 0zm288-32l0 32 0 64 64 0 0-338.7-32-32-32 32L416 288l0 64zm-32 0l0-64 0-96-64 0 0 160 64 0zM128 192l0 160 64 0 0-64 0-96-64 0zm96-82.7L224 288l0 160 64 0 0-64 0-32 0-160 0-32 0-50.7-32-32-32 32z"/></svg>
